X:40
T:Delayed Gratification
C:© Paul Gitlitz 2010
M:C|
K:Am
AB|"Am"cBAE- E2AB|"F"cBAF- F4|"G"G2B2- Bc- cG|B2Bc- cBAB|!
"Am"cBAE- E2AB|"F"cBAF- F4|"G"G2B2- Bc2A|1BcB2 "Am"A2:|2BcB2 "Am"A4|!
|:"F"FAcA dAcA|FAcd _edcA|"Am"EABA cABA |EABc dcBA|!
"F"FAcA dAcA|FA_ed cAFA|1"G"B3B- Bcd2| "E7"e8:|2"G"GABc BAG2|"Am"A8|]
